web/themes/custom/customsolent/logo.svg

<?xml version="1.0" encoding="UTF-8" standalone="no"?>
<svg
   width="1920"
   height="720"
   viewBox="0 0 1920 720"
   version="1.1"
   xml:space="preserve"
   style="clip-rule:evenodd;fill-rule:evenodd;stroke-linejoin:bevel;stroke-miterlimit:2"
   id="svg5"
   sodipodi:docname="slnt2.svg"
   inkscape:version="1.4.2 (ebf0e94, 2025-05-08)"
   xmlns:inkscape="http://www.inkscape.org/namespaces/inkscape"
   xmlns:sodipodi="http://sodipodi.sourceforge.net/DTD/sodipodi-0.dtd"
   xmlns="http://www.w3.org/2000/svg"
   xmlns:svg="http://www.w3.org/2000/svg"><defs
   id="defs5"><rect
     x="4277.5952"
     y="779.19019"
     width="430.67484"
     height="587.04297"
     id="rect6" /></defs><sodipodi:namedview
   id="namedview5"
   pagecolor="#ffffff"
   bordercolor="#000000"
   borderopacity="0.25"
   inkscape:showpageshadow="2"
   inkscape:pageopacity="0.0"
   inkscape:pagecheckerboard="0"
   inkscape:deskcolor="#d1d1d1"
   inkscape:zoom="0.18865741"
   inkscape:cx="954.11042"
   inkscape:cy="68.907975"
   inkscape:window-width="1835"
   inkscape:window-height="950"
   inkscape:window-x="26"
   inkscape:window-y="23"
   inkscape:window-maximized="0"
   inkscape:current-layer="svg5" />
    <circle
   style="fill:#000000;fill-opacity:1;stroke-width:0.884953"
   id="path7"
   cx="344.53958"
   cy="355.1412"
   r="265.03067" />
    <g
   transform="matrix(0.5,0,0,0.5,44.274952,155.27828)"
   id="g2">
        <path
   d="m 338.225,451.055 c 0,7.219 -0.914,13.711 -2.743,19.476 -1.828,5.766 -4.242,10.852 -7.242,15.258 -3,4.406 -6.515,8.156 -10.547,11.25 -4.031,3.094 -8.203,5.625 -12.515,7.594 -4.313,1.969 -8.696,3.422 -13.149,4.359 -4.453,0.938 -8.648,1.407 -12.586,1.407 H 142.945 c -1.206,0 -2.363,-0.48 -3.216,-1.333 -0.853,-0.853 -1.332,-2.01 -1.332,-3.216 0,-7.07 0,-20.61 0,-27.598 0,-1.171 0.465,-2.294 1.293,-3.123 0.828,-0.828 1.951,-1.293 3.122,-1.293 23.893,0 136.631,0 136.631,0 7.032,0 12.493,-2.062 16.383,-6.187 3.891,-4.125 5.836,-9.657 5.836,-16.594 0,-3.375 -0.515,-6.469 -1.547,-9.281 -1.031,-2.813 -2.508,-5.25 -4.429,-7.313 -1.922,-2.062 -4.266,-3.656 -7.032,-4.781 -2.765,-1.125 -5.836,-1.688 -9.211,-1.688 H 195.35 c -5.907,0 -12.282,-1.054 -19.125,-3.164 -6.844,-2.109 -13.196,-5.508 -19.055,-10.195 -5.859,-4.688 -10.734,-10.828 -14.625,-18.422 -3.891,-7.594 -5.836,-16.875 -5.836,-27.844 0,-10.968 1.945,-20.226 5.836,-27.773 3.891,-7.547 8.766,-13.688 14.625,-18.422 5.859,-4.734 12.211,-8.156 19.055,-10.266 6.843,-2.109 13.218,-3.164 19.125,-3.164 h 120.959 c 1.93,0 3.494,1.564 3.494,3.494 0,7.313 0,24.091 0,30.508 0,1.414 -1.147,2.561 -2.561,2.561 -17.76,0 -121.892,0 -121.892,0 -6.938,0 -12.352,2.109 -16.243,6.328 -3.89,4.219 -5.835,9.797 -5.835,16.734 0,7.032 1.945,12.586 5.835,16.664 3.891,4.079 9.305,6.118 16.243,6.118 h 84.375 c 3.937,0.093 8.109,0.632 12.515,1.617 4.407,0.984 8.789,2.508 13.149,4.57 4.359,2.063 8.508,4.664 12.445,7.805 3.938,3.14 7.43,6.914 10.477,11.32 3.046,4.406 5.461,9.469 7.242,15.188 1.781,5.718 2.672,12.187 2.672,19.406 z"
   style="fill:#00afff;fill-rule:nonzero;stroke:#00afff;stroke-width:28.82px"
   id="path1" />
    </g>
    <g
   transform="matrix(0.5,0,0,0.5,78.885562,97.282258)"
   id="g3">
        <path
   d="M 509.247,689.999 H 342.466 c -2.625,0 -5.062,-0.468 -7.312,-1.406 -2.25,-0.937 -4.196,-2.226 -5.836,-3.867 -1.641,-1.641 -2.93,-3.586 -3.867,-5.836 -0.938,-2.25 -1.407,-4.687 -1.407,-7.312 V 490.343 h 36.563 v 163.094 h 148.64 z"
   style="fill:#ffc200;fill-rule:nonzero;stroke:#ffc200;stroke-width:29.88px;stroke-linejoin:round"
   id="path2"
   sodipodi:nodetypes="cscccsccccc" />
    </g>
    <g
   transform="matrix(0.5,0,0,0.5,24.631103,13.094268)"
   id="g4">
        <path
   d="m 860.441,781.028 c 0,2.625 -0.492,5.063 -1.477,7.313 -0.984,2.25 -2.297,4.195 -3.937,5.836 -1.641,1.64 -3.586,2.929 -5.836,3.867 -2.25,0.937 -4.641,1.406 -7.172,1.406 -2.25,0 -4.524,-0.422 -6.82,-1.266 -2.297,-0.843 -4.336,-2.203 -6.118,-4.078 L 695.488,654.606 V 796.637 H 658.925 V 610.591 c 0,-3.75 1.055,-7.149 3.164,-10.196 2.11,-3.047 4.805,-5.32 8.086,-6.82 3.469,-1.406 7.031,-1.758 10.688,-1.055 3.656,0.703 6.796,2.414 9.421,5.133 L 823.878,737.012 V 594.981 h 36.563 z"
   style="fill:#ff0004;fill-rule:nonzero;stroke:#ff0004;stroke-width:30.94px;stroke-linejoin:round"
   id="path3" />
    </g><rect
   style="fill:#ffffff;fill-opacity:0;stroke-width:0.868902"
   id="rect2"
   width="4537.3252"
   height="1197.9386"
   x="1171.4355"
   y="-30.503193" />
    
<g
   transform="matrix(0.5,0,0,0.5,234.16549,308.68726)"
   id="g5">
        <path
   d="M 680.283,-30.734 H 599.704 V 134.359 H 563.142 V -30.734 h -80.719 v -36.563 h 197.86 z"
   style="fill:#62b924;fill-rule:nonzero;stroke:#62b924;stroke-width:36.24px;stroke-linejoin:round"
   id="path4" />
    </g><text
   xml:space="preserve"
   style="font-size:74.6667px;text-align:start;writing-mode:lr-tb;direction:ltr;text-anchor:start;fill:#000000;fill-opacity:1"
   x="4463.1167"
   y="906.40491"
   id="text7"><tspan
     sodipodi:role="line"
     id="tspan7"
     x="4463.1167"
     y="906.40491" /></text><text
   xml:space="preserve"
   style="font-size:74.6667px;text-align:start;writing-mode:lr-tb;direction:ltr;text-anchor:start;fill:#000000"
   x="4383.6074"
   y="1261.546"
   id="text4"><tspan
     sodipodi:role="line"
     id="tspan4"
     x="4383.6074"
     y="1261.546"
     style="font-style:normal;font-variant:normal;font-weight:normal;font-stretch:normal;font-size:74.6667px;font-family:'Noto Sans';-inkscape-font-specification:'Noto Sans, @wght=700';font-variant-ligatures:normal;font-variant-caps:normal;font-variant-numeric:normal;font-variant-east-asian:normal;font-variation-settings:'wght' 700" /></text><text
   xml:space="preserve"
   id="text6"
   style="font-style:normal;font-variant:normal;font-weight:normal;font-stretch:normal;font-size:74.6667px;font-family:Sans;-inkscape-font-specification:'Sans, @wght=500';font-variant-ligatures:normal;font-variant-caps:normal;font-variant-numeric:normal;font-variant-east-asian:normal;font-variation-settings:'wght' 500;text-align:start;writing-mode:lr-tb;direction:ltr;white-space:pre;shape-inside:url(#rect6);display:inline;fill:#000000" /><text
   xml:space="preserve"
   style="font-style:normal;font-variant:normal;font-weight:normal;font-stretch:normal;font-size:53.3333px;font-family:'Noto Sans';-inkscape-font-specification:'Noto Sans, @wght=700';font-variant-ligatures:normal;font-variant-caps:normal;font-variant-numeric:normal;font-variant-east-asian:normal;font-variation-settings:'wght' 700;text-align:start;writing-mode:lr-tb;direction:ltr;text-anchor:start;fill:#000000"
   x="4190.1348"
   y="1034.9448"
   id="text8"><tspan
     sodipodi:role="line"
     id="tspan8"
     x="4190.1348"
     y="1034.9448" /></text><text
   xml:space="preserve"
   style="font-style:normal;font-variant:normal;font-weight:normal;font-stretch:normal;font-size:53.3333px;font-family:'Noto Sans';-inkscape-font-specification:'Noto Sans, @wght=700';font-variant-ligatures:normal;font-variant-caps:normal;font-variant-numeric:normal;font-variant-east-asian:normal;font-variation-settings:'wght' 700;text-align:start;writing-mode:lr-tb;direction:ltr;text-anchor:start;fill:#000000"
   x="4235.1899"
   y="1048.1963"
   id="text9"><tspan
     sodipodi:role="line"
     id="tspan9"
     x="4235.1899"
     y="1048.1963" /></text><text
   xml:space="preserve"
   style="font-style:normal;font-variant:normal;font-weight:normal;font-stretch:normal;font-size:53.3333px;font-family:'Noto Sans';-inkscape-font-specification:'Noto Sans, @wght=700';font-variant-ligatures:normal;font-variant-caps:normal;font-variant-numeric:normal;font-variant-east-asian:normal;font-variation-settings:'wght' 700;text-align:start;writing-mode:lr-tb;direction:ltr;text-anchor:start;fill:#000000"
   x="4335.9019"
   y="1213.8405"
   id="text10"><tspan
     sodipodi:role="line"
     id="tspan10"
     x="4335.9019"
     y="1213.8405" /></text><text
   xml:space="preserve"
   style="font-style:normal;font-variant:normal;font-weight:normal;font-stretch:normal;font-size:53.3333px;font-family:'Noto Sans';-inkscape-font-specification:'Noto Sans, @wght=700';font-variant-ligatures:normal;font-variant-caps:normal;font-variant-numeric:normal;font-variant-east-asian:normal;font-variation-settings:'wght' 700;text-align:start;writing-mode:lr-tb;direction:ltr;text-anchor:start;fill:#000000"
   x="4468.417"
   y="1163.4846"
   id="text11"><tspan
     sodipodi:role="line"
     id="tspan11"
     x="4468.417"
     y="1163.4846" /></text><text
   xml:space="preserve"
   style="font-style:normal;font-variant:normal;font-weight:normal;font-stretch:normal;font-size:24.2277px;font-family:'Noto Sans';-inkscape-font-specification:'Noto Sans, @wght=700';font-variant-ligatures:normal;font-variant-caps:normal;font-variant-numeric:normal;font-variant-east-asian:normal;font-variation-settings:'wght' 700;text-align:start;writing-mode:lr-tb;direction:ltr;text-anchor:start;fill:#000000;stroke-width:0.45427"
   x="725.74567"
   y="244.13982"
   id="text12"><tspan
     sodipodi:role="line"
     id="tspan12"
     x="725.74567"
     y="244.13982"
     style="stroke-width:0.45427"> </tspan></text><text
   xml:space="preserve"
   style="font-style:normal;font-variant:normal;font-weight:bold;font-stretch:normal;font-size:177.93899536px;line-height:0;font-family:'Noto Serif';-inkscape-font-specification:'Noto Serif, Bold';font-variant-ligatures:normal;font-variant-caps:normal;font-variant-numeric:normal;font-variant-east-asian:normal;text-align:start;writing-mode:lr-tb;direction:ltr;text-anchor:start;fill:#000000;stroke-width:3.33636"
   x="697.55304"
   y="245.93999"
   id="text13"><tspan
     sodipodi:role="line"
     id="tspan13"
     x="697.55304"
     y="245.93999"
     style="font-style:normal;font-variant:normal;font-weight:bold;font-stretch:normal;font-size:177.93899536px;line-height:0px;font-family:'Noto Serif';-inkscape-font-specification:'Noto Serif, Bold';font-variant-ligatures:normal;font-variant-caps:normal;font-variant-numeric:normal;font-variant-east-asian:normal;writing-mode:lr-tb;stroke-width:3.33636">the</tspan></text><text
   xml:space="preserve"
   style="font-style:normal;font-variant:normal;font-weight:bold;font-stretch:normal;font-size:177.93899536px;line-height:0px;font-family:'Noto Serif';-inkscape-font-specification:'Noto Serif, Bold';font-variant-ligatures:normal;font-variant-caps:normal;font-variant-numeric:normal;font-variant-east-asian:normal;text-align:start;writing-mode:lr-tb;direction:ltr;text-anchor:start;fill:#000000;stroke-width:3.33636"
   x="701.97449"
   y="406.91992"
   id="text14"><tspan
     sodipodi:role="line"
     id="tspan14"
     x="701.97449"
     y="406.91992"
     style="stroke-width:3.33636;-inkscape-font-specification:'Noto Serif, Bold';font-family:'Noto Serif';font-weight:bold;font-style:normal;font-stretch:normal;font-variant:normal;font-size:177.93899536px;font-variant-ligatures:normal;font-variant-caps:normal;font-variant-numeric:normal;font-variant-east-asian:normal">solent</tspan></text><text
   xml:space="preserve"
   style="font-style:normal;font-variant:normal;font-weight:bold;font-stretch:normal;font-size:177.93899536px;line-height:0px;font-family:'Noto Serif';-inkscape-font-specification:'Noto Serif, Bold';font-variant-ligatures:normal;font-variant-caps:normal;font-variant-numeric:normal;font-variant-east-asian:normal;text-align:start;writing-mode:lr-tb;direction:ltr;text-anchor:start;fill:#000000;stroke-width:3.33636"
   x="693.13196"
   y="573.10828"
   id="text15"><tspan
     sodipodi:role="line"
     id="tspan15"
     x="693.13196"
     y="573.10828"
     style="stroke-width:3.33636;-inkscape-font-specification:'Noto Serif, Bold';font-family:'Noto Serif';font-weight:bold;font-style:normal;font-stretch:normal;font-variant:normal;font-size:177.93899536px;font-variant-ligatures:normal;font-variant-caps:normal;font-variant-numeric:normal;font-variant-east-asian:normal">metropolitan</tspan></text></svg>

<?xml version="1.0" encoding="UTF-8" standalone="no"?>
<svg
   width="100%"
   height="100%"
   viewBox="0 0 1080 1080"
   version="1.1"
   xml:space="preserve"
   style="fill-rule:evenodd;clip-rule:evenodd;stroke-linejoin:bevel;stroke-miterlimit:2;"
   id="svg5"
   sodipodi:docname="slnt.svg"
   inkscape:version="1.4.2 (ebf0e94, 2025-05-08)"
   xmlns:inkscape="http://www.inkscape.org/namespaces/inkscape"
   xmlns:sodipodi="http://sodipodi.sourceforge.net/DTD/sodipodi-0.dtd"
   xmlns="http://www.w3.org/2000/svg"
   xmlns:svg="http://www.w3.org/2000/svg"><defs
   id="defs5" /><sodipodi:namedview
   id="namedview5"
   pagecolor="#ffffff"
   bordercolor="#000000"
   borderopacity="0.25"
   inkscape:showpageshadow="2"
   inkscape:pageopacity="0.0"
   inkscape:pagecheckerboard="0"
   inkscape:deskcolor="#d1d1d1"
   inkscape:zoom="2.1344149"
   inkscape:cx="266.58359"
   inkscape:cy="575.09906"
   inkscape:window-width="1920"
   inkscape:window-height="1065"
   inkscape:window-x="0"
   inkscape:window-y="0"
   inkscape:window-maximized="1"
   inkscape:current-layer="svg5" />
    <g
   transform="matrix(1.41834,0,0,1.22562,-428.018,-135.332)"
   id="g1">
        <rect
   x="289.714"
   y="85.717"
   width="836.267"
   height="978.451"
   id="rect1" />
    </g>
    <g
   transform="matrix(1,0,0,1,-59.867,151.538)"
   id="g2">
        <path
   d="M338.225,451.055C338.225,458.274 337.311,464.766 335.482,470.531C333.654,476.297 331.24,481.383 328.24,485.789C325.24,490.195 321.725,493.945 317.693,497.039C313.662,500.133 309.49,502.664 305.178,504.633C300.865,506.602 296.482,508.055 292.029,508.992C287.576,509.93 283.381,510.399 279.443,510.399L142.945,510.399C141.739,510.399 140.582,509.919 139.729,509.066C138.876,508.213 138.397,507.056 138.397,505.85C138.397,498.78 138.397,485.24 138.397,478.252C138.397,477.081 138.862,475.958 139.69,475.129C140.518,474.301 141.641,473.836 142.812,473.836C166.705,473.836 279.443,473.836 279.443,473.836C286.475,473.836 291.936,471.774 295.826,467.649C299.717,463.524 301.662,457.992 301.662,451.055C301.662,447.68 301.147,444.586 300.115,441.774C299.084,438.961 297.607,436.524 295.686,434.461C293.764,432.399 291.42,430.805 288.654,429.68C285.889,428.555 282.818,427.992 279.443,427.992L195.35,427.992C189.443,427.992 183.068,426.938 176.225,424.828C169.381,422.719 163.029,419.32 157.17,414.633C151.311,409.945 146.436,403.805 142.545,396.211C138.654,388.617 136.709,379.336 136.709,368.367C136.709,357.399 138.654,348.141 142.545,340.594C146.436,333.047 151.311,326.906 157.17,322.172C163.029,317.438 169.381,314.016 176.225,311.906C183.068,309.797 189.443,308.742 195.35,308.742L316.309,308.742C318.239,308.742 319.803,310.306 319.803,312.236C319.803,319.549 319.803,336.327 319.803,342.744C319.803,344.158 318.656,345.305 317.242,345.305C299.482,345.305 195.35,345.305 195.35,345.305C188.412,345.305 182.998,347.414 179.107,351.633C175.217,355.852 173.272,361.43 173.272,368.367C173.272,375.399 175.217,380.953 179.107,385.031C182.998,389.11 188.412,391.149 195.35,391.149L279.725,391.149C283.662,391.242 287.834,391.781 292.24,392.766C296.647,393.75 301.029,395.274 305.389,397.336C309.748,399.399 313.897,402 317.834,405.141C321.772,408.281 325.264,412.055 328.311,416.461C331.357,420.867 333.772,425.93 335.553,431.649C337.334,437.367 338.225,443.836 338.225,451.055Z"
   style="fill:rgb(0,175,255);fill-rule:nonzero;stroke:rgb(0,175,255);stroke-width:28.82px;"
   id="path1" />
    </g>
    <g
   transform="matrix(1,0,0,1,9.35421,35.546)"
   id="g3">
        <path
   d="M 509.247,689.999 H 342.466 c -2.625,0 -5.062,-0.468 -7.312,-1.406 -2.25,-0.937 -4.196,-2.226 -5.836,-3.867 -1.641,-1.641 -2.93,-3.586 -3.867,-5.836 -0.938,-2.25 -1.407,-4.687 -1.407,-7.312 V 490.343 h 36.563 v 163.094 h 148.64 z"
   style="fill:#ffc200;fill-rule:nonzero;stroke:#ffc200;stroke-width:29.88px;stroke-linejoin:round"
   id="path2"
   sodipodi:nodetypes="cscccsccccc" />
    </g>
    <g
   transform="matrix(1,0,0,1,-99.1547,-132.83)"
   id="g4">
        <path
   d="M860.441,781.028C860.441,783.653 859.949,786.091 858.964,788.341C857.98,790.591 856.667,792.536 855.027,794.177C853.386,795.817 851.441,797.106 849.191,798.044C846.941,798.981 844.55,799.45 842.019,799.45C839.769,799.45 837.495,799.028 835.199,798.184C832.902,797.341 830.863,795.981 829.081,794.106L695.488,654.606L695.488,796.637L658.925,796.637L658.925,610.591C658.925,606.841 659.98,603.442 662.089,600.395C664.199,597.348 666.894,595.075 670.175,593.575C673.644,592.169 677.206,591.817 680.863,592.52C684.519,593.223 687.659,594.934 690.284,597.653L823.878,737.012L823.878,594.981L860.441,594.981L860.441,781.028Z"
   style="fill:rgb(255,0,4);fill-rule:nonzero;stroke:rgb(255,0,4);stroke-width:30.94px;stroke-linejoin:round;"
   id="path3" />
    </g>
    <g
   transform="matrix(1,0,0,1,319.914,458.356)"
   id="g5">
        <path
   d="M680.283,-30.734L599.704,-30.734L599.704,134.359L563.142,134.359L563.142,-30.734L482.423,-30.734L482.423,-67.297L680.283,-67.297L680.283,-30.734Z"
   style="fill:rgb(98,185,36);fill-rule:nonzero;stroke:rgb(98,185,36);stroke-width:36.24px;stroke-linejoin:round;"
   id="path4" />
    </g>
</svg>
